actions/symbolic/appointment-new-symbolic.svg

<?xml version="1.0" encoding="UTF-8" standalone="no"?>
<svg
   xmlns:dc="http://purl.org/dc/elements/1.1/"
   xmlns:cc="http://creativecommons.org/ns#"
   xmlns:rdf="http://www.w3.org/1999/02/22-rdf-syntax-ns#"
   xmlns:svg="http://www.w3.org/2000/svg"
   xmlns="http://www.w3.org/2000/svg"
   xmlns:sodipodi="http://sodipodi.sourceforge.net/DTD/sodipodi-0.dtd"
   xmlns:inkscape="http://www.inkscape.org/namespaces/inkscape"
   viewBox="0 0 16 16"
   id="svg3371"
   version="1.1"
   inkscape:version="0.91 r13725"
   sodipodi:docname="appointment-new-symbolic.svg">
  <metadata
     id="metadata3379">
    <rdf:RDF>
      <cc:Work
         rdf:about="">
        <dc:format>image/svg+xml</dc:format>
        <dc:type
           rdf:resource="http://purl.org/dc/dcmitype/StillImage" />
      </cc:Work>
    </rdf:RDF>
  </metadata>
  <sodipodi:namedview
     pagecolor="#ffffff"
     bordercolor="#666666"
     borderopacity="1"
     objecttolerance="10"
     gridtolerance="10"
     guidetolerance="10"
     inkscape:pageopacity="0"
     inkscape:pageshadow="2"
     inkscape:window-width="640"
     inkscape:window-height="480"
     id="namedview3377"
     showgrid="false"
     inkscape:zoom="39.8125"
     inkscape:cx="-0.94191521"
     inkscape:cy="8"
     inkscape:current-layer="svg3371" />
  <defs
     id="defs3051">
    <style
       type="text/css"
       id="current-color-scheme">
      .ColorScheme-Text {
        color:#bebebe;
      }
      </style>
  </defs>
  <path
     style="color:#bebebe;fill:currentColor;fill-opacity:1;stroke:none"
     class="ColorScheme-Text"
     d="M 7.989746,2 C 7.176297,2 6.4031556,2.1617599 5.6606446,2.4804687 4.1857192,3.1133942 3.1054318,4.1870162 2.4716797,5.6650391 2.1541073,6.4055217 2,7.1788275 2,7.9926755 c 0,0.814005 0.1541072,1.5957865 0.4716797,2.3364255 0.6337521,1.478025 1.7141764,2.55735 3.1889649,3.19043 C 6.4032926,13.838242 7.176277,14 7.989746,14 c 0.813468,0 1.59321,-0.163446 2.336425,-0.480469 1.48724,-0.634631 2.562054,-1.714916 3.194825,-3.19043 C 13.83953,9.586089 14,8.8066805 14,7.9926755 14,7.1788275 13.839686,6.4080326 13.520996,5.6650391 12.888362,4.1893898 11.813411,3.1150814 10.326171,2.4804687 9.5828382,2.16329 8.8033318,2 7.989746,2 Z M 7.619141,4.2016601 c 0.305937,0 0.5551755,0.2505517 0.5551755,0.5566407 l 0,3.8115237 2.1606445,1.6889655 c 0.250313,0.185519 0.287967,0.538125 0.102539,0.779295 -0.101991,0.139132 -0.269649,0.212403 -0.436523,0.212403 -0.120511,0 -0.2393196,-0.04591 -0.341309,-0.120117 L 7.276367,9.275879 C 7.1465639,9.173838 7.0625,9.015577 7.0625,8.8393558 l 0,-4.081055 c 0,-0.306089 0.2507018,-0.5566407 0.556641,-0.5566407 z"
     id="path3375"
     inkscape:connector-curvature="0" />
</svg>

<svg xmlns="http://www.w3.org/2000/svg" viewBox="0 0 16 16">
  <path fill="#bebebe" d="M7.99 2c-.814 0-1.587.162-2.33.48-1.474.633-2.555 1.707-3.188 3.185A5.832 5.832 0 0 0 2 7.993c0 .814.154 1.595.472 2.336.633 1.478 1.714 2.557 3.189 3.19a5.902 5.902 0 0 0 4.666 0c1.486-.634 2.561-1.714 3.194-3.19A5.872 5.872 0 0 0 14 7.993c0-.814-.16-1.585-.479-2.328-.633-1.476-1.708-2.55-3.195-3.185A5.9 5.9 0 0 0 7.99 2zm-.37 2.202c.305 0 .554.25.554.556V8.57l2.161 1.689a.551.551 0 1 1-.675.871L7.276 9.276a.556.556 0 0 1-.213-.437V4.76c0-.307.25-.557.556-.557z"/>
</svg>
